X:1025
T: Mike Leonard's
T: Moonlight in Athlone
S: "Passing Time" (Jim & Mary Coogan & friends)
N: Originally from Mike Flanagan of the Flanagan Bros.
L: 1/8
M: 4/4
Q: 300
R: hornpipe
K: G
Bc | d^cde d=cBA | GFGA BGDB, | CEGc B,DGB | (3ABA (3GFE D2 Bc |
d^cde d=cBA | GFGA BGDB, | CEGc BAGB | (3ABA GF G2 :|
K: D
FG | Adcd fedc | Be^de gfe=d | ca^ga ba=ge | (3dfe (3dcB A2 FG |
Adcd fedc | Be^de gfe=d | ca^ga b=gec | (3dcd ec d2 :|
